X:1
T:Christ ist erstanden
T:Hans Leo Hassler
T:Christ ist erstanden
C:Hans Leo Hassler
%%score [ 1 2 3 4 ]
L:1/8
Q:1/4=120
M:4/4
K:Eb
V:1 treble nm="Soprano" snm="S"
V:2 treble nm="Alto" snm="A"
V:3 treble-8 nm="Tenor" snm="T"
V:4 bass nm="Bass" snm="B"
V:1
 c2- c2 B2 c2 | e2 f2 c4 | c2 B-B c2 A2 | G2 A2 F3- F | B2 B2 F2 E2 | A2 B2 c4 | c2 BB c2 A2 | %7
w: 1.Christ _ ist er-|stan- * den|von der _ Mar- ter|al- * le, des|solln wir al- le|froh _ sein,|Chri- stus will un- ser|
w: 2.Wär er nicht er-|stan- * den,|so wär die Welt ver-|gan- * gen; _|seit das er er-|stan- den ist,|so lob'n wir den Herrn|
 G2 A2 F2 G2 | FF =E2 F4 :| c2 B2 A2 B2 | c2 e2 c4 | e2 d2 c2 e2 | c2 B2 A4 | c2 B2 A2 F2 | %14
w: Trost _ sein, _|Ky- ri- e- leis.|3.Hal- * le- *|lu- * ja,|hal- * le- *|lu- * ja,|hal- * le- *|
w: Je- sum Christ, _|Ky- ri- e- leis.||||||
 G2 A2 F2 F2 | B2 B2 F2 E2 | A2 B2 c4 | c2 BB c2 A2 | G2 A2 F2 G2 | FF =E2 F4 |] %20
w: lu- * ja, des|solln wir al- le|froh _ sein,|Chri- stus will un- ser|Trost _ sein, _|Ky- ri- e- leis.|
w: ||||||
V:2
 G2- G2 G2 G2 | A4 G4 | A2 G-G E2 F2 | =E2 F2 C3- C | _D2 D2 A,2 C2 | C2 E2 E4 | A2 GG E2 F2 | %7
w: 1.Christ _ ist er-|stan- den|von der _ Mar- ter|al- * le, des|solln wir al- le|froh _ sein,|Chri- stus will un- ser|
w: 2.Wär er nicht er-|stan- den,|so wär die Welt ver-|gan- * gen; _|seit das er er-|stan- den ist,|so lob'n wir den Herrn|
 =E2 F2 D2 _E2 | C_D C2 C4 :| G4 F2 G2 | E2 G2 E4 | G2 F2 A2 G2 | FC E2 C4 | A2 G2 F2 D2 | %14
w: Trost _ sein, _|Ky- ri- e- leis.|3.Hal- le- *|lu- * ja,|hal- * le- *|lu- * * ja,|hal- * le- *|
w: Je- sum Christ, _|Ky- ri- e- leis.||||||
 E2 C2 C2 C2 | _D2 D2 A,2 C2 | C2 E2 E4 | A2 GG E2 F2 | =E2 F2 D2 _E2 | C_D C2 C4 |] %20
w: lu- * ja, des|solln wir al- le|froh _ sein,|Chri- stus will un- ser|Trost _ sein, _|Ky- ri- e- leis.|
w: ||||||
V:3
 e2- e2 d2 e2 | c3 d =e4 | f2 d-d c2 c2 | c4 A3- A | F2 F2 F2 G2 | A2 G2 A4 | e2 ee c2 c2 | %7
w: 1.Christ _ ist er-|stan- * den|von der _ Mar- ter|al- le, des|solln wir al- le|froh _ sein,|Chri- stus will un- ser|
w: 2.Wär er nicht er-|stan- * den,|so wär die Welt ver-|gan- gen; _|seit das er er-|stan- den ist,|so lob'n wir den Herrn|
 c2- c2 B4 | =AB G2 A4 :| e3 d c2 e2 | c2 B2 A4 | B4 A2 c2 | A2 G2 A4 | e4 c2 B2 | BG c2 A3 A | %15
w: Trost _ sein,|Ky- ri- e- leis.|3.Hal- * le- *|lu- * ja,|hal- le- *|lu- * ja,|hal- le- *|lu- * * ja, des|
w: Je- sum Christ,|Ky- ri- e- leis.|||||||
 F2 F2 F2 G2 | A2 G2 A4 | e2 ee c2 c2 | c4 B4 | =AB G2 A4 |] %20
w: solln wir al- le|froh _ sein,|Chri- stus will un- ser|Trost sein,|Ky- ri- e- leis.|
w: |||||
V:4
 C2- C2 G,2 C2 | A,2 F,2 C4 | F,2 G,-G, A,2 F,2 | C,2 F,2 F,3- F, | B,,2 B,,2 _D,2 C,2 | %5
w: 1.Christ _ ist er-|stan- * den|von der _ Mar- ter|al- * le, des|solln wir al- le|
w: 2.Wär er nicht er-|stan- * den,|so wär die Welt ver-|gan- * gen; _|seit das er er-|
 F,2 E,2 A,,4 | A,2 E,E, A,2 F,2 | C,2 F,2 B,,2 E,2 | F,B,, C,2 F,4 :| C,2 E,2 F,2 E,2 | %10
w: froh _ sein,|Chri- stus will un- ser|Trost _ sein, _|Ky- ri- e- leis.|3.Hal- * le- *|
w: stan- den ist,|so lob'n wir den Herrn|Je- sum Christ, _|Ky- ri- e- leis.||
 A,2 E,2 A,,4 | E,2 B,,2 F,2 C,2 | F,A, E,2 A,,4 | A,2 E,2 F,2 B,,2 | E,2 F,2 F,3 F, | %15
w: lu- * ja,|hal- * le- *|lu- * * ja,|hal- * le- *|lu- * ja, des|
w: |||||
 B,,2 B,,2 _D,2 C,2 | F,2 E,2 A,,4 | A,2 E,E, A,2 F,2 | C,2 F,2 B,,2 E,2 | F,B,, C,2 F,4 |] %20
w: solln wir al- le|froh _ sein,|Chri- stus will un- ser|Trost _ sein, _|Ky- ri- e- leis.|
w: |||||

